X: 119007
Q: "Highland Schottische."
M: C
L: 1/8
K: D
|:\
vf>vguf>ue d>ed>B | A>FA>d (c<e)e2 |\
f>gf>e d>ed>B | c>de>a (f<d)d2 ::\
f2 (3agf e2 (3gfe | d2 (3fed c2 (3edc |\
(3fef (3agf (3ede (3gfe | (3dcd (3fed (3cBc (3edc |\
(3BAB (3dcB A>df>a | g>fe>a (f<d)d2 |]


